public/images/clients/glucoz.svg

<svg width=" 100%" height=" 100%" viewBox="0 0 37 40" fill="none" xmlns="http://www.w3.org/2000/svg">
    <path fill-rule="evenodd" clip-rule="evenodd"
          d="M26.632 30.8434C24.7175 31.1238 23.0623 31.5967 21.7887 32.9566C21.3979 33.3745 21.131 33.8509 21.0065 34.4107C20.9317 34.7475 20.9795 35.0612 21.2304 35.2938C21.4997 35.5438 21.8288 35.4555 22.1319 35.3396C22.3037 35.2745 22.4702 35.1828 22.6217 35.0781C24.2215 33.9792 25.3893 32.4784 26.632 30.8434ZM13.0714 30.9771C12.7741 31.3511 12.5685 31.589 12.3856 31.8433C11.4301 33.1661 10.7197 34.5767 10.8582 36.2763C10.9219 37.0576 11.4701 37.9552 11.9233 37.906C12.7408 37.8172 12.8185 37.089 12.9522 36.48C13.3397 34.7152 13.2784 32.9344 13.0714 30.9771ZM17.9348 18.233C18.0492 18.0684 18.0926 18.0298 18.1066 17.9821C19.3281 13.8444 20.1402 9.64929 19.7754 5.30748C19.6958 4.36017 19.5775 3.3868 18.9777 2.57895C18.5221 1.96559 18.0777 1.98537 17.6665 2.62431C17.3277 3.15081 17.1917 3.7468 17.0956 4.35486C16.365 9.01469 16.8785 13.5963 17.9348 18.233ZM12.0961 25.062C11.6057 25.7478 11.2327 26.3641 10.7704 26.9036C8.20208 29.9004 4.02725 29.6254 1.88217 26.3095C0.490395 24.1582 0.00829361 21.723 8.96823e-05 19.218C-0.0100446 16.0522 0.838338 13.0964 2.73586 10.5232C4.42876 8.22759 6.625 6.72965 9.59048 6.70408C12.3455 6.68043 14.0578 8.97077 13.1597 11.5907C12.2384 14.2802 10.2429 15.8413 7.48014 16.4223C6.95123 16.5338 6.45079 16.3765 6.13518 15.9152C5.80171 15.4258 5.79785 14.8578 5.94359 14.2999C6.01984 14.0075 6.22494 14.1035 6.45368 14.1508C8.37437 14.549 10.8249 12.554 10.8476 10.5918C10.8582 9.63674 10.2492 8.96884 9.29562 8.91962C7.75135 8.84048 6.56709 9.59379 5.59082 10.6719C2.48298 14.105 1.72195 20.3139 3.86462 24.4144C5.32878 27.2153 7.98878 27.4185 9.78978 24.8154C10.8862 23.2302 11.3316 21.4398 11.031 19.5027C10.8606 18.4043 10.9388 18.2586 11.7959 18.1625C12.8542 18.0438 13.6118 18.5235 13.6505 19.3883C13.7392 21.3867 13.8826 23.3788 14.218 25.3535C14.2648 25.6276 14.3198 25.9003 14.3917 26.2854C15.4104 24.7556 16.1203 23.2162 16.7752 21.6473C16.8925 21.3655 16.8051 21.1382 16.7187 20.8891C14.8965 15.6439 14.3024 10.2544 14.8714 4.73948C14.9858 3.62809 15.2555 2.536 15.7941 1.53271C16.336 0.524592 17.1757 0.00436701 18.3175 2.37524e-05C19.4487 -0.00383692 20.326 0.462822 20.8651 1.48107C21.9683 3.56584 22.086 5.83929 21.9494 8.1055C21.6845 12.5149 20.8019 16.8137 19.3145 20.9813C19.0892 21.6135 19.412 22.4102 20.0688 22.7982C20.7015 23.1722 21.1315 22.7403 21.5291 22.3485C22.0764 21.8094 22.3201 21.0947 22.5517 20.3844C22.9387 19.1962 23.1776 17.9623 23.6621 16.8041C23.9609 16.0894 24.2996 15.4007 24.7972 14.797C25.9119 13.4434 27.3187 12.9521 29.0077 13.4245C30.6461 13.8825 31.5504 15.0745 31.8221 16.682C32.3105 19.5678 31.2286 21.9002 29.0666 23.7764C28.7775 24.0269 28.6038 24.1171 28.9488 24.5216C29.8426 25.5712 29.8657 26.8852 29.7552 28.1665C29.6896 28.9222 29.9521 28.9314 30.5187 28.7442C31.2266 28.5106 31.9182 28.2413 32.5996 27.9368C33.2424 27.6487 33.4924 27.8446 33.4682 28.5366C33.4509 29.0385 33.2289 29.3841 32.7752 29.6123C31.8159 30.0949 30.8131 30.4617 29.7461 30.5567C29.1911 30.6065 28.9131 30.8559 28.6487 31.3038C27.5469 33.1723 26.3052 34.9376 24.5911 36.3106C23.8798 36.8805 23.1149 37.3506 22.183 37.49C20.2131 37.7849 18.6105 36.1711 18.9241 34.194C19.2726 31.9992 21.1942 30.1779 23.8185 29.6283C24.8329 29.4154 25.8685 29.2875 26.9003 29.1732C27.31 29.1278 27.5194 28.9835 27.6048 28.5844C27.7472 27.9223 27.8148 27.2694 27.5551 26.6203C27.2704 25.9095 26.7285 25.5552 25.9882 25.6687C25.495 25.7449 25.1171 25.7266 24.9839 25.1986C24.8527 24.6808 25.1277 24.3459 25.5896 24.1215C27.2844 23.2972 28.3736 21.9281 29.0594 20.2092C29.4531 19.2223 29.5516 18.1862 29.4309 17.1414C29.3393 16.3548 28.9778 15.7231 28.1473 15.4847C27.3433 15.2535 26.8149 15.6777 26.3805 16.2641C25.7015 17.18 25.3883 18.2547 25.0829 19.3333C24.6997 20.6889 24.3793 22.0691 23.5656 23.2606C22.5956 24.6803 21.0113 25.3743 19.6591 24.9704C19.0559 24.7904 18.6018 24.3797 18.1042 23.9743C17.2211 25.7753 16.2299 27.4769 14.9983 29.027C14.7174 29.3797 14.8559 29.7407 14.9201 30.0944C15.3014 32.1777 15.5224 34.2654 15.1749 36.3777C15.0615 37.0649 14.8815 37.7318 14.5399 38.3432C13.3537 40.4685 10.6821 40.5303 9.41868 38.4446C8.70059 37.2589 8.65137 35.9819 9.02971 34.664C9.64646 32.5199 10.8766 30.7189 12.2162 28.9874C12.5603 28.5434 12.6737 28.1347 12.5564 27.5971C12.3808 26.7911 12.2582 25.9727 12.0961 25.062Z"
          fill="currentColor"></path>
    <path fill-rule="evenodd" clip-rule="evenodd"
          d="M35.6289 28.6356C34.9161 28.6076 34.4562 28.1096 34.4731 27.3852C34.4905 26.6517 34.9586 26.2034 35.6974 26.212C36.4097 26.2202 36.8185 26.6787 36.8049 27.4537C36.7924 28.2085 36.3397 28.6636 35.6289 28.6356Z"
          fill="currentColor"></path>
</svg>

<svg xmlns="http://www.w3.org/2000/svg" fill="none" viewBox="0 0 37 40">
  <path fill="currentColor" fill-rule="evenodd" d="M26.632 30.843c-1.915.28-3.57.754-4.843 2.114a3.07 3.07 0 0 0-.783 1.454c-.074.337-.026.65.224.883.27.25.599.162.902.046.172-.066.338-.157.49-.262 1.6-1.099 2.767-2.6 4.01-4.235m-13.56.134c-.298.374-.503.612-.686.866-.956 1.323-1.666 2.734-1.528 4.433.064.782.612 1.68 1.065 1.63.818-.089.896-.817 1.03-1.426.387-1.765.325-3.546.118-5.503m4.863-12.744c.114-.165.158-.203.172-.25 1.221-4.139 2.033-8.334 1.668-12.676-.08-.947-.197-1.92-.797-2.728-.456-.613-.9-.594-1.312.045-.338.527-.474 1.123-.57 1.73-.731 4.66-.218 9.242.839 13.879m-5.839 6.829c-.49.686-.863 1.302-1.326 1.842-2.568 2.996-6.743 2.721-8.888-.594C.49 24.158.008 21.723 0 19.218c-.01-3.166.838-6.122 2.736-8.695C4.429 8.228 6.625 6.73 9.59 6.704c2.755-.024 4.468 2.267 3.57 4.887-.922 2.69-2.917 4.25-5.68 4.831-.529.112-1.03-.046-1.345-.507-.333-.49-.337-1.057-.191-1.615.076-.293.28-.197.51-.15 1.92.399 4.37-1.596 4.394-3.558.01-.955-.599-1.623-1.552-1.672-1.545-.08-2.729.674-3.705 1.752-3.108 3.433-3.869 9.642-1.726 13.742 1.464 2.801 4.124 3.005 5.925.401 1.096-1.585 1.542-3.375 1.241-5.312-.17-1.099-.092-1.244.765-1.34 1.058-.12 1.816.36 1.854 1.225.09 1.999.233 3.99.568 5.965.047.275.102.547.174.932 1.018-1.53 1.728-3.069 2.383-4.638.117-.281.03-.509-.056-.758-1.823-5.245-2.417-10.635-1.848-16.15.115-1.11.384-2.203.923-3.206C16.336.525 17.176.004 18.317 0c1.132-.004 2.009.463 2.548 1.481 1.103 2.085 1.221 4.358 1.084 6.624a46.4 46.4 0 0 1-2.635 12.876c-.225.632.098 1.43.755 1.817.633.374 1.063-.058 1.46-.45.547-.539.791-1.253 1.023-1.964.387-1.188.626-2.422 1.11-3.58.299-.715.638-1.403 1.135-2.007 1.115-1.354 2.522-1.845 4.21-1.373 1.64.459 2.543 1.65 2.815 3.258.488 2.886-.593 5.218-2.755 7.094-.29.25-.463.341-.118.746.894 1.05.917 2.363.806 3.645-.065.755.197.764.764.577q1.061-.35 2.08-.807c.643-.288.893-.092.87.6-.018.502-.24.847-.694 1.075-.96.483-1.962.85-3.029.945-.555.05-.833.299-1.097.747-1.102 1.868-2.344 3.634-4.058 5.007-.711.57-1.476 1.04-2.408 1.179-1.97.295-3.573-1.319-3.259-3.296.349-2.195 2.27-4.016 4.895-4.566 1.014-.213 2.05-.34 3.081-.455.41-.045.62-.19.705-.589.142-.662.21-1.315-.05-1.964-.285-.71-.826-1.065-1.567-.951-.493.076-.87.058-1.004-.47-.131-.518.144-.853.606-1.078 1.694-.824 2.784-2.193 3.47-3.912.393-.987.492-2.023.37-3.068-.09-.786-.452-1.418-1.283-1.656-.804-.231-1.332.193-1.766.78-.68.915-.993 1.99-1.298 3.068-.383 1.356-.704 2.736-1.517 3.928-.97 1.42-2.555 2.113-3.907 1.71-.603-.18-1.057-.591-1.555-.997-.883 1.801-1.874 3.503-3.106 5.053-.28.353-.142.714-.078 1.067.381 2.084.602 4.171.255 6.284-.114.687-.293 1.354-.635 1.965-1.186 2.125-3.858 2.187-5.121.102-.718-1.186-.768-2.463-.39-3.781.617-2.144 1.848-3.945 3.187-5.677.344-.444.458-.852.34-1.39-.175-.806-.298-1.624-.46-2.535m23.533 3.574c-.713-.028-1.173-.526-1.156-1.25.017-.734.486-1.183 1.224-1.174.713.008 1.121.467 1.108 1.242-.013.755-.465 1.21-1.176 1.182" clip-rule="evenodd"/>
</svg>
